X:1
T:Shackelford, CMD
T:Shackelford, CMD
T:Frederick Henry Cheesewright, 1889
T:Public Domain Courtesy of the Cyber Hymnal™
C:Frederick Henry Cheesewright, 1889
Z:Public Domain
Z:Courtesy of the Cyber Hymnal™
%%score ( 1 2 ) ( 3 4 )
L:1/8
M:4/4
K:F
V:1 treble 
V:2 treble 
V:3 bass 
V:4 bass 
V:1
 [Fc]2 | [Fd]2 [Fc]2 [FA]2 [CF]2 | [DG]3 [B,D] [B,D]2 [B,E]2 | [B,D]2 __D2 [=DB]2 [EB]2 | %4
 [FA]6 [Fc]2 | [Fd]2 [Fc]2 [FA]2 [CF]2 | [CE]3 [Cc] [C=B]2 [CA]2 | [=B,G]2 [B,D]2 [B,F]2 [B,E]2 | %8
 __D6 D2 | [EG]3 [EG] [EA]2 [EG]2 | [CF]2 [EG]2 [FA]2 __E2 | [_GA]3 [GA] [EB]2 [DA]2 | %12
 [Dd]6 [Ec]2 | d2 c2 [FA]2 __G2 | __E2 [D_G]2 [D=G]2 [Dd]2 | [Ed]3 [Gc] [E=B]2 [Gc]2 | [Ff]6 |] %17
V:2
 x2 | x8 | x8 | x2 C2 x4 | x8 | x8 | x8 | x8 | C6 C2 | x8 | x6 D2 | x8 | x8 | F4 F2 x2 | D2 x6 | %15
 x8 | x6 |] %17
V:3
 [F,A,]2 | [F,B,]2 [F,A,]2 [C,C]2 [C,A,]2 | [B,,B,]3 [B,,G,] [B,,G,]2 [G,,G,]2 | %3
 [C,F,]2 [C,E,]2 [C,F,]2 [C,G,]2 | [F,,A,]6 [F,A,]2 | [F,B,]2 [F,A,]2 [C,C]2 [C,A,]2 | %6
 [G,,G,]3 [G,,E,] [G,,E,]2 [G,,E,]2 | [G,,F,]2 [G,,F,]2 [G,,D,]2 [G,,F,]2 | [C,E,]6 [C,E,]2 | %9
 [C,B,]3 [C,B,] [C,C]2 [C,B,]2 | [F,A,]2 [F,B,]2 [F,C]2 [_G,A,]2 | [D,C]3 [D,C] [D,D]2 [_G,C]2 | %12
 B,6 [C,G,C]2 | D2 C2 __B,2 __G,2 | __E,2 [C,A,]2 [B,,B,]2 [G,,B,]2 | %15
 [C,B,]3 [C,B,] [C,C]2 [C,B,]2 | [F,,F,A,]6 |] %17
V:4
 x2 | x8 | x8 | x8 | x8 | x8 | x8 | x8 | x8 | x8 | x8 | x8 | G,2 A,2 B,2 x2 | [F,A,]4 A,2 F,2 | %14
 D,2 x6 | x8 | x6 |] %17

